docs/assets/images/icons/more-icon.svg

<svg xmlns="http://www.w3.org/2000/svg" viewBox="0 0 60 60" width="512" height="512"><path d="M8 22c-4.411 0-8 3.589-8 8s3.589 8 8 8 8-3.589 8-8-3.589-8-8-8zm0 14c-3.309 0-6-2.691-6-6s2.691-6 6-6 6 2.691 6 6-2.691 6-6 6zm44-14c-4.411 0-8 3.589-8 8s3.589 8 8 8 8-3.589 8-8-3.589-8-8-8zm0 14c-3.309 0-6-2.691-6-6s2.691-6 6-6 6 2.691 6 6-2.691 6-6 6zM30 22c-4.411 0-8 3.589-8 8s3.589 8 8 8 8-3.589 8-8-3.589-8-8-8zm0 14c-3.309 0-6-2.691-6-6s2.691-6 6-6 6 2.691 6 6-2.691 6-6 6z" fill="#FFF"/></svg>

<?xml version="1.0" encoding="iso-8859-1"?>
<!-- Generator: Adobe Illustrator 19.0.0, SVG Export Plug-In . SVG Version: 6.00 Build 0)  -->
<svg xmlns="http://www.w3.org/2000/svg" xmlns:xlink="http://www.w3.org/1999/xlink" version="1.1" id="Capa_1" x="0px" y="0px" viewBox="0 0 60 60" style="enable-background:new 0 0 60 60;" xml:space="preserve" width="512px" height="512px">
<g>
	<path d="M8,22c-4.411,0-8,3.589-8,8s3.589,8,8,8s8-3.589,8-8S12.411,22,8,22z M8,36c-3.309,0-6-2.691-6-6s2.691-6,6-6s6,2.691,6,6   S11.309,36,8,36z" fill="#FFFFFF"/>
	<path d="M52,22c-4.411,0-8,3.589-8,8s3.589,8,8,8s8-3.589,8-8S56.411,22,52,22z M52,36c-3.309,0-6-2.691-6-6s2.691-6,6-6   s6,2.691,6,6S55.309,36,52,36z" fill="#FFFFFF"/>
	<path d="M30,22c-4.411,0-8,3.589-8,8s3.589,8,8,8s8-3.589,8-8S34.411,22,30,22z M30,36c-3.309,0-6-2.691-6-6s2.691-6,6-6   s6,2.691,6,6S33.309,36,30,36z" fill="#FFFFFF"/>
</g>
<g>
</g>
<g>
</g>
<g>
</g>
<g>
</g>
<g>
</g>
<g>
</g>
<g>
</g>
<g>
</g>
<g>
</g>
<g>
</g>
<g>
</g>
<g>
</g>
<g>
</g>
<g>
</g>
<g>
</g>
</svg>
